X:1
T:The Scattery Island
R:slide
M:12/8
L:1/8
K:D
|:F2A d2d FGA dcd|e2A cBA e2A cBA|
|F2A d2d FGA dcd|1 e2A cBA B2c d2A:|2 e2A cBA B2c d2f|]
|:a2a ~f2e d2d def|g2g fgf e2e efg|
|a2a ~f2e d2d def|1 ~e2A cBA B2c d2f:|2 ~e2A cBA B2c d2A|]